Papirus/16x16/apps/tokodon.svg

<svg width="16" height="16" version="1.1" xmlns="http://www.w3.org/2000/svg">
 <circle transform="rotate(90)" cx="8" cy="-8" r="8" style="fill:#50beee;opacity:.98"/>
 <path d="m6 6c-0.8124959 2.3296109-1.5525423 2.6603806-2 3s-1 0.1657282-1 0.5c0 0.5 0.7911529 0.4945618 1 0.5 0.5100494 0.013281 1.3816982-0.5857256 2.5-2.0000004 1.2887768-1.6298686 0.5-1.9999996 0.5-1.9999996z" style="fill:#e4e4e4"/>
 <path d="m10 6c0.812504 2.3329991 1.48625 2.6935263 2 3s1 0.20926 1 0.5c0 0.5-0.793659 0.4954969-1 0.5-0.496426 0.010831-1.386591-0.5919131-2.5-2.0000004-1.2887768-1.629868-0.5-1.9999996-0.5-1.9999996z" style="fill:#e4e4e4"/>
 <path d="m11 3c0.937501 0 2 1.0625002 2 2v2c0 0.4650188-0.507183 1-1 1h-2v1c0.0131 1.217098 0 2.755884 1 3 0.302368 0.07381 0.914193 0.09269 1 0 0.04903-0.05296 0.06251-0.151967 0.06251-0.238742 0-0.156133 0.164063-0.761258 0.476563-0.761258 0.04161 0 0.238003 0.02923 0.316126 0.108683 0.109485 0.111352 0.144801 0.253666 0.144801 0.445543-0.027668 0.168439-0.26685 0.350544-0.331788 0.445774 0.192479 0.06522 0.309228 0.239993 0.331788 0.433137 0 0.224394-0.04191 0.469569-0.253907 0.566863-0.407309 0-0.513055-0.296315-0.746093-0.221955-0.614809 0.196185-0.875 0.221956-2.7500001 0.221956-0.9374998 0-2.3785341-0.99998-2.8124996-1.875-0.3098906-0.62484-0.4375003-1.1948465-0.4375003-2.125001v-1h-1c-0.9374999 0-2-1.0491781-2-2v-2c0-0.4563744 0.5618832-1 1-1z" style="fill:#4f4f4d"/>
 <circle cx="6.5" cy="5.5" r=".5" style="fill:#e4e4e4"/>
 <circle cx="9.5" cy="5.5" r=".5" style="fill:#e4e4e4"/>
</svg>

<svg xmlns="http://www.w3.org/2000/svg" width="16" height="16" version="1.1">
 <circle style="fill:#50beee" cx="8" cy="8" r="8"/>
 <path style="fill:#e4e4e4" d="M 10,6 C 10.813,8.333 11.486,8.6935 12,9 12.514,9.3065 13,9.2093 13,9.5 13,10 12.206,9.9955 12,10 11.504,10.011 10.613,9.4081 9.5,8 8.2112,6.3701 9,6 9,6 Z M 6,6 C 5.1875,8.3296 4.4475,8.6604 4,9 3.5525,9.3396 3,9.1657 3,9.5 3,10 3.7912,9.9946 4,10 4.51,10.013 5.3817,9.4143 6.5,8 7.7888,6.3701 7,6 7,6 Z"/>
 <path style="fill:#4f4f4d" d="M 11,3 C 11.938,3 13,4.0625 13,5 V 7 C 13,7.465 12.493,8 12,8 H 10 V 9 C 10.013,10.217 10,11.756 11,12 11.302,12.074 11.914,12.093 12,12 12.049,11.947 12.063,11.848 12.063,11.761 12.063,11.605 12.227,11 12.539,11 12.581,11 12.777,11.029 12.855,11.109 12.965,11.22 13,11.362 13,11.554 12.972,11.723 12.733,11.905 12.668,12 12.861,12.065 12.977,12.24 13,12.433 13,12.658 12.958,12.903 12.746,13 12.339,13 12.233,12.704 12,12.778 11.385,12.974 11.125,13 9.25,13 8.3125,13 6.8715,12 6.4375,11.125 6.1276,10.5 6,9.9302 6,9 V 8 H 5 C 4.0625,8 3,6.9508 3,6 V 4 C 3,3.5436 3.5619,3 4,3 Z"/>
 <circle style="fill:#e4e4e4" cx="6.5" cy="5.5" r=".5"/>
 <circle style="fill:#e4e4e4" cx="9.5" cy="5.5" r=".5"/>
</svg>
